X:28
T:Roast Beef
M:6/4
L:1/4
Q:3/4=85
S:D.Wright, Extraordinary Collection, London 1713
Z:Pete Stewart, 2004 <www.hornpipemusic.co.uk>
K:A
a | gf/e/aecA | G>ABBFB | G3E2D | CEAF2d | c>BAGEG | A3A,3 :|
 |: a | g/a/bec2f | ed/c/B/A/G2F | d3E2D | CEAF2d | cd/c/B/A/BEG | A3A,2 :|

